X: 33422
T: Quimper, The
R: waltz
M: 3/4
K: Gmajor
d2GF GA|Bc BA (3GAB|A3GAB|cB dc (3BAG|
A3 FDC|D3 EFG|AB cA GF|1 G4(3ABc:|2 G4 B2||
A3 Bcd|ef gf af|gf ed ef|gf e2 dB|
A3 Bcd|ef gf af|gf ed ef|g4 GF||
ED EB2 E|D2- DE GF|A3 BcB|dc BA BG|
ED EB2 E|D3 EFG|AB cA GF|1 G4- GB:|2 G4 (3ABc||

